asset/icons/ic_user.svg

<svg width="80" height="81" viewBox="0 0 80 81" fill="none" xmlns="http://www.w3.org/2000/svg">
<path fill-rule="evenodd" clip-rule="evenodd" d="M37.4457 0.692926C38.2405 0.237769 39.1237 0.00679295 40 0C40.8696 0 41.7459 0.224181 42.5203 0.679338C79.8806 23.3953 79.9314 24.2701 79.9991 25.4358L79.9994 25.4412C80.0444 26.2165 77.4874 28.4693 69.8386 35.2083L69.8385 35.2084C68.2386 36.618 66.4158 38.224 64.3475 40.0538V27.88C64.3475 27.88 55.1424 22.6627 40 22.6627C24.8576 22.6627 15.6525 27.88 15.6525 27.88V40.0538C12.1125 36.9374 10.2325 35.2695 8.45113 33.689L8.45048 33.6884L8.44969 33.6877C7.97537 33.2668 7.50801 32.8522 7.01814 32.418C7.02019 34.3859 7.02224 36.6352 7.02429 38.8844L7.0243 38.8864V38.8869C7.02904 44.0833 7.03378 49.2791 7.03852 51.0047C8.06432 51.6365 8.6961 52.7574 8.6961 53.9666C8.6961 54.3674 8.62138 54.7682 8.48551 55.1487C9.66076 56.0997 10.4352 57.5196 10.4352 59.1296C10.4352 61.2016 9.37544 62.9678 8.44475 64.5031C7.51406 66.0317 6.59016 67.2137 6.59016 67.2137C6.25728 67.6349 5.74778 67.8795 5.2111 67.8795C4.67442 67.8795 4.16492 67.6281 3.83884 67.2001C3.83884 67.2001 2.91494 66.0045 1.99104 64.4624L1.95616 64.4044C1.04052 62.8832 0.000576293 61.1554 0.000576293 59.1296C0.000576293 57.5196 0.775023 56.0997 1.95028 55.1487C1.81441 54.7682 1.73968 54.3674 1.73968 53.9666C1.73968 52.737 2.39185 51.6025 3.44482 50.9775C3.43803 48.0903 3.42444 34.9451 3.42444 29.6191C3.41765 29.5037 3.43123 29.3814 3.45161 29.2659C0.904096 26.9561 -0.0265972 25.9371 0.000576293 25.448L0.000892438 25.4426C0.0685801 24.2769 0.119781 23.3951 37.4457 0.692926ZM63.6002 39.8092C64.0349 39.9994 64.2999 40.0945 64.3474 40.0538V40.1761C65.2713 40.3595 66.3854 40.7671 67.3705 41.6502C68.8243 42.9546 69.5647 44.8907 69.5647 47.3974C69.5647 51.3104 67.1871 54.5984 63.8787 55.4951C57.4114 71.7924 49.3884 80.0532 40.0067 80.0532H40H39.9932C30.6115 80.0532 22.5817 71.7924 16.1212 55.4951C12.8128 54.6052 10.4352 51.3104 10.4352 47.3974C10.4352 44.8907 11.1756 42.9546 12.6294 41.6502C13.6145 40.7671 14.7286 40.3595 15.6525 40.1761V40.0538C15.7 40.0945 15.931 40.0062 16.3182 39.8296C16.8889 39.6462 17.8467 39.3609 19.1307 39.028V43.729L17.2014 43.5252C17.2014 43.5252 15.8427 43.4165 14.9324 44.2521C14.253 44.8771 13.9134 45.93 13.9134 47.3974C13.9134 49.5917 15.2788 52.0033 17.575 52.2343L18.6348 52.343L19.0152 53.3416C24.9662 68.7558 32.0245 76.575 39.9932 76.575H40H40.0067C47.9754 76.575 55.0337 68.7558 60.9847 53.3416L61.3651 52.343L62.4249 52.2343C64.7211 52.0033 66.0865 49.5917 66.0865 47.3974C66.0865 45.9165 65.7333 44.8567 65.0471 44.2385C64.1504 43.4347 62.8639 43.5208 62.8009 43.525L62.7985 43.5252L60.8692 43.729V39.028C62.092 39.3405 63.0227 39.619 63.6002 39.8092ZM19.1307 39.028C23.1456 38.009 30.4552 36.5756 39.9999 36.5756C49.5514 36.5756 56.8543 38.0022 60.8692 39.028V30.0811C57.6695 28.7156 50.2783 26.1409 39.9999 26.1409C29.64 26.1409 22.31 28.702 19.1307 30.0675V39.028ZM6.95692 59.1296C6.95692 58.1989 6.21644 57.4448 5.21782 57.4448C4.21919 57.4448 3.47871 58.1989 3.47871 59.1296C3.47871 59.5576 4.15126 61.3238 4.96646 62.6689C5.03302 62.7775 5.06706 62.8229 5.10119 62.8684C5.13325 62.9111 5.16538 62.9539 5.22461 63.0494C5.27466 62.9743 5.30422 62.9345 5.33007 62.8997C5.36738 62.8495 5.39694 62.8097 5.46917 62.6893C6.27758 61.3578 6.95692 59.6255 6.95692 59.1296Z" fill="#153E9A"/>
</svg>

<svg width="80" height="81" viewBox="0 0 80 81" fill="none" xmlns="http://www.w3.org/2000/svg"><path fill-rule="evenodd" clip-rule="evenodd" d="M37.446.693A5.227 5.227 0 0 1 40 0c.87 0 1.746.224 2.52.68C79.88 23.394 79.931 24.27 80 25.435v.005c.044.776-2.513 3.028-10.161 9.767-1.6 1.41-3.423 3.016-5.492 4.846V27.88S55.142 22.663 40 22.663c-15.142 0-24.348 5.217-24.348 5.217v12.174a2102.96 2102.96 0 0 1-7.2-6.365H8.45v-.001l-1.432-1.27.006 6.466v.002c.005 5.197.01 10.393.015 12.119a3.483 3.483 0 0 1 1.657 2.962c0 .4-.075.801-.21 1.182 1.175.95 1.95 2.37 1.95 3.98 0 2.073-1.06 3.839-1.991 5.374-.93 1.529-1.855 2.71-1.855 2.71a1.758 1.758 0 0 1-1.379.666A1.728 1.728 0 0 1 3.84 67.2s-.924-1.196-1.848-2.738l-.035-.058C1.041 62.884.001 61.155.001 59.13c0-1.61.774-3.03 1.95-3.981a3.525 3.525 0 0 1-.211-1.182 3.48 3.48 0 0 1 1.705-2.99c-.007-2.887-.02-16.032-.02-21.358a1.55 1.55 0 0 1 .027-.353C.904 26.956-.027 25.937 0 25.448v-.005c.069-1.166.12-2.048 37.446-24.75ZM63.6 39.809c.435.19.7.285.747.245v.122c.924.183 2.038.591 3.024 1.474 1.453 1.305 2.194 3.24 2.194 5.747 0 3.913-2.378 7.201-5.686 8.098-6.468 16.297-14.49 24.558-23.872 24.558h-.014c-9.382 0-17.411-8.26-23.872-24.558-3.308-.89-5.686-4.185-5.686-8.098 0-2.506.74-4.442 2.194-5.747.986-.883 2.1-1.29 3.024-1.474v-.122c.047.04.278-.048.665-.224.57-.184 1.529-.47 2.813-.802v4.701l-1.93-.204s-1.358-.108-2.269.727c-.679.625-1.019 1.678-1.019 3.145 0 2.195 1.366 4.606 3.662 4.837l1.06.109.38.999c5.951 15.414 13.01 23.233 20.978 23.233h.014c7.968 0 15.027-7.82 20.978-23.233l.38-.999 1.06-.109c2.296-.23 3.662-2.642 3.662-4.837 0-1.48-.354-2.54-1.04-3.158-.897-.804-2.183-.718-2.246-.714h-.003l-1.929.204v-4.701c1.223.313 2.154.591 2.731.781Zm-44.47-.781c4.016-1.019 11.325-2.452 20.87-2.452 9.551 0 16.854 1.426 20.87 2.452v-8.947c-3.2-1.365-10.592-3.94-20.87-3.94-10.36 0-17.69 2.561-20.87 3.927v8.96ZM6.958 59.13c0-.931-.74-1.685-1.74-1.685-.998 0-1.738.754-1.738 1.685 0 .428.672 2.194 1.487 3.539.067.109.101.154.135.2.032.042.064.085.124.18.05-.075.08-.114.105-.15.037-.05.067-.09.14-.21.808-1.331 1.487-3.063 1.487-3.56Z" fill="#153E9A"/></svg>
